src/assets/icons/behaviour.svg

<?xml version="1.0" encoding="UTF-8"?>
<svg width="29px" height="28px" viewBox="0 0 29 28" version="1.1" xmlns="http://www.w3.org/2000/svg" xmlns:xlink="http://www.w3.org/1999/xlink">
    <!-- Generator: Sketch 42 (36781) - http://www.bohemiancoding.com/sketch -->
    <title>report_behavior</title>
    <desc>Created with Sketch.</desc>
    <defs></defs>
    <g id="Report" stroke="none" stroke-width="1" fill="none" fill-rule="evenodd">
        <g id="MVP-1.1---Report-User" transform="translate(-574.000000, -588.000000)" fill="#333333">
            <g id="Overlay-Report-User" transform="translate(97.000000, 186.000000)">
                <path d="M505.047494,415.505265 C505.047494,418.749828 503.90217,421.727044 501.994908,424.055519 L502.009982,424.065473 C501.930631,424.153641 501.845877,424.237542 501.765104,424.324572 C501.112949,425.079968 500.380022,425.764261 499.57656,426.360102 C496.087404,429.156149 491.842282,429.967005 487.022935,429.967005 C483.91432,429.967005 481.638462,429.828781 478.154994,428.884536 C477.493453,428.72811 477,428.137388 477,427.428067 C477,426.921815 477.353808,426.461353 477.353808,426.461353 C478.477801,425.171833 479.101514,423.859844 479.101514,422.015153 C479.101514,421.366126 479.01164,420.738431 478.853508,420.138892 C478.325356,418.693515 478.037248,417.133235 478.037248,415.505265 C478.037248,408.046013 484.083545,402 491.542513,402 C499.001196,402 505.047494,408.046013 505.047494,415.505265 Z M500.674672,422.974187 C502.393937,420.875233 503.341026,418.22253 503.341026,415.505265 C503.341026,408.999359 498.048134,403.706467 491.542513,403.706467 C485.036607,403.706467 479.743715,408.999359 479.743715,415.505265 C479.743715,415.831485 479.757935,416.155998 479.784386,416.47852 C479.802872,416.609918 479.821643,416.741601 479.840699,416.875843 C479.873406,417.039948 479.906967,417.20576 479.940527,417.373278 C479.97039,417.54108 480.014759,417.707177 480.061118,417.873557 C480.107192,418.032827 480.147579,418.223098 480.197919,418.357909 L480.371695,418.877813 C480.428861,419.053579 480.497689,419.191519 480.558268,419.348229 C480.671464,419.651696 480.835569,419.952603 480.970096,420.242133 C481.13221,420.520572 481.268727,420.800148 481.435677,421.04332 C481.593809,421.291611 481.745969,421.52369 481.904386,421.725907 C481.980609,421.828579 482.053987,421.926701 482.123668,422.020272 C482.199036,422.109577 482.270424,422.194047 482.33726,422.273683 C482.469512,422.433806 482.586689,422.571461 482.692774,422.676693 C482.897835,422.892277 483.015012,423.015711 483.015012,423.015711 L483.048288,423.050694 C483.373086,423.392556 483.35915,423.933222 483.017287,424.258019 C482.675141,424.582817 482.134475,424.568881 481.809962,424.227019 C481.79887,424.215358 481.78664,424.201422 481.776401,424.189476 C481.776401,424.189476 481.650123,424.039876 481.428851,423.777649 C481.315087,423.649379 481.189377,423.483568 481.048593,423.291021 C480.977775,423.195459 480.902121,423.09364 480.822486,422.986417 C480.804284,422.958545 480.783806,422.927544 480.765035,422.899103 C480.609462,424.526219 480.007364,425.924669 478.871141,427.309751 C481.928561,428.116057 483.963523,428.260538 487.022935,428.260538 C492.177319,428.260538 495.719944,427.263677 498.509165,425.028489 L498.534193,425.008296 L498.55979,424.989241 C499.254606,424.474172 499.898513,423.875202 500.473308,423.209395 L500.494355,423.184936 L500.516539,423.16133 C500.529337,423.147678 500.541852,423.134026 500.554934,423.120375 L500.674672,422.974187 Z M492.682291,415.753841 L495.296598,418.368148 C495.629928,418.701478 495.629928,419.241575 495.296598,419.57462 C495.129933,419.741285 494.911505,419.824618 494.693362,419.824618 C494.474934,419.824618 494.256791,419.741285 494.090126,419.574905 L491.475534,416.960597 L488.861226,419.574905 C488.694561,419.741285 488.476134,419.824618 488.25799,419.824618 C488.039562,419.824618 487.821419,419.741285 487.654754,419.57462 C487.321424,419.241575 487.321424,418.701478 487.654754,418.368148 L490.269062,415.753841 L487.723297,413.20836 C487.389967,412.875031 487.389967,412.334649 487.723297,412.001604 C488.056627,411.668274 488.596439,411.668274 488.929769,412.001319 L491.475534,414.547084 L494.021298,412.001319 C494.354628,411.668274 494.894725,411.668274 495.228055,412.001604 C495.561385,412.334649 495.561385,412.875031 495.228055,413.20836 L492.682291,415.753841 Z" id="report_behavior"></path>
            </g>
        </g>
    </g>
</svg>

<svg width="29" height="28" viewBox="0 0 29 28" xmlns="http://www.w3.org/2000/svg"><g id="Report" fill="none" fill-rule="evenodd"><g id="MVP-1.1---Report-User" transform="translate(-574 -588)" fill="#333"><g id="Overlay-Report-User" transform="translate(97 186)"><path d="M505.047 415.505c0 3.245-1.145 6.222-3.052 8.55l.015.01c-.08.089-.164.173-.245.26a13.584 13.584 0 0 1-2.188 2.035c-3.49 2.796-7.735 3.607-12.554 3.607-3.109 0-5.385-.138-8.868-1.082a1.498 1.498 0 0 1-1.155-1.457c0-.506.354-.967.354-.967 1.124-1.29 1.748-2.601 1.748-4.446 0-.649-.09-1.277-.248-1.876a13.473 13.473 0 0 1-.817-4.634c0-7.459 6.047-13.505 13.506-13.505 7.458 0 13.504 6.046 13.504 13.505zm-4.372 7.47a11.817 11.817 0 0 0 2.666-7.47c0-6.506-5.293-11.799-11.798-11.799-6.506 0-11.8 5.293-11.8 11.8 0 .325.015.65.041.973l.057.397.1.497c.03.168.074.334.12.5.046.16.087.35.137.485l.174.52c.057.176.126.314.186.47.113.304.278.605.412.894.162.279.299.558.466.801.158.249.31.48.468.683l.22.294.213.254c.133.16.25.297.356.403l.322.339.033.035a.854.854 0 1 1-1.272 1.138l-.347-.411a6.91 6.91 0 0 1-.38-.487l-.227-.305-.057-.087c-.156 1.627-.758 3.026-1.894 4.41 3.058.807 5.093.952 8.152.952 5.154 0 8.697-.997 11.486-3.233l.025-.02.026-.019a11.885 11.885 0 0 0 1.913-1.78l.021-.024.023-.024.038-.04.12-.147zm-7.993-7.221l2.615 2.614a.853.853 0 1 1-1.207 1.207l-2.614-2.614-2.615 2.614a.852.852 0 0 1-1.206 0 .853.853 0 0 1 0-1.207l2.614-2.614-2.546-2.546a.853.853 0 0 1 1.207-1.207l2.546 2.546 2.545-2.546a.853.853 0 0 1 1.207 1.207l-2.546 2.546z" id="report_behavior"/></g></g></g></svg>
